X: 7452
T: Clumsy Lover, The
R: reel
M: 4/4
K: Amajor
|:"A"ceef ecBA|"D"dfff =gfed|"A"ceef ecBA|"E"dBBA B2d2|
"A"ceef ecBA|"D"dfff =gfed|"A"ceec d2GB|BAAB "A"A4:|
|:"A"ceea aeec|"D"dffa affd|"A"ceea aeec|"E"dBBA B2d2|
"A"ceea aeec|"D"dffa affd|"A"ceec d2GB|BAAB "A"A4:|
|:"A"ceec ecec|"D"dfff =gfed|"A"ceec ecec|"E"dBBA B2d2|
"A"ceec ecec|"D"dfff =gfed|"A"ceec d2GB|BAAB "A"A4:|
|:"A"caac acac|"D"daad adad|"A"caac acac|"E"Bece deBe|
"A"caac acac|"D"daad adad|"A"ceec d2GB|BAAB "A"A4:|

